X:1
T:Agnus Dei
T:Velthur Tognoni 24 Ottobre 2008
T:Agnus Dei
C:Velthur Tognoni
C:24 Ottobre 2008
%%score [ 1 ( 2 3 ) ]
L:1/8
Q:1/4=160
M:4/4
K:G
V:1 treble nm="Femmine" snm="F."
V:2 bass nm="Maschii" snm="M."
V:3 bass 
V:1
 (E2 C2) (D2 E2) F2 E2 (A2 c2 B2) (A2 G2) A2 !breath!C2 (A,2 B,2) (C2 D2) C2 (E2 G2 | %1
w: A- * gnus _ De- i: qui _ _ tol- * lis qui tol- * lis _ pec- ca- *|
 F2) E2 D4 E8 !breath!C2 E2 D2 G2 A2 G2 F6 E2 C4 | %2
w: * ta mun- di, A- gnus De- i: qui tol- lis pec- ca-|
 D8 !breath!E2 F2 G2 A2 B2 A2 (G2 F2) G8 !breath!B,8 | C4 D4 E2 (G2 F4 B4) E4 (C4 D4) !breath!C8 | %4
w: ta, qui tol- lis pec- ca- ta mun- * di, mi-|se- re- re no- * * bis. A- * gnus|
 (D2 C4) E2 (F6 G2 A2 G2 D2 E2) C6 !breath!D4 E2 (FEGF) | %5
w: A- * gnus De- * * * * * i: qui tol- lis _ _ _|
 (DE) (C2 D3) C (B,2 A,B,) C8 !breath!G2 E2 F2 G2 A2 G2 A2 c2 (B2 A2) | %6
w: pec- * ca- * ta mun- * * di, qui tol- lis pec- ca- ta mun- di, pec- *|
 (G2 A2) G2 (B2 A2) c2 (d2 c2) B4 E4 C4 D4 E8 |] %7
w: ca- * ta mun- * di, do- * na no- bis pa- cem.|
V:2
 z12 E,2 C,2 (D,2 E,2) (G,2 F,2) (!breath!E,2 G,2) (F,2 E,2) (D,2 E,2) (C,2 E,2) | %1
w: A- gnus De- * i: _ qui _ tol- * lis _ A- *|
 (D,2 F,2) (C2 B,2) A,8 !breath!A,4 F,2 E,2 C,4 (D,2 F,2 E,2) (A,2 B,2 A,2) | %2
w: gnus _ De- * i: A- gnus De- i: qui _ _ tol- * *|
 G,8 !breath!B,4 E,4 C,4 D,4 C,8 !breath!G,2 E,2 F,2 G,2 | %3
w: lis pec- ca- ta mun- di, mi- se- re- re|
 (A,2 G,2) F,2 A,2 (G,2 E,2) (A,2 B,2) E,2 F,2 G,2 A,2 B,2 A,2 G,2 F,2 !breath!G,8 | %4
w: mi- * se- re- re _ mi- * se- re- re no- bis. A- gnus De- i:|
 G,2 A,2 B,2 A,2 E,2 F,2 D,2 C,4 (D,2 E,2) G,4 A,4 (!breath!B,CB,A,)(G,F,) D,2 E,2 | %5
w: qui tol- lis qui tol- lis pec- ca- ta- * mun- di, A- * * * gnus _ De- i:|
 C,2 E,2 D,3 (E,F,) G,3 E,8 !breath!B,8 C6 A,2 (B,2 C2 | %6
w: qui tol- lis pec- * ca- ta pec- ca- ta mun- *|
 D2) C2 B,4 (F,2 E,2) D,4 (E,2 F,2 G,2 A,2) B,8- B,8 |] %7
w: * di, do- na _ no- bis _ _ _ pa- cem.|
V:3
 x40 | x40 | x40 | x40 | x40 | x40 | x24 (B,2 A,2 G,2 F,2) E,8 |] %7

